img/left_q.svg

<svg width="52" height="42" viewBox="0 0 52 42" fill="none" xmlns="http://www.w3.org/2000/svg">
<path d="M28.8873 28.7697C28.8873 22.4081 31.3163 16.5091 36.1743 11.0728C41.0323 5.63651 45.1962 2.22436 48.6662 0.836365L51.2687 4.47985C47.7987 6.33051 44.8492 8.99083 42.4202 12.4608C40.1069 15.9308 38.7768 19.5164 38.4298 23.2178C39.3551 22.6394 40.8009 22.3503 42.7672 22.3503C44.8492 22.3503 46.6421 23.2756 48.1457 25.1263C49.6494 26.8613 50.4012 29.1746 50.4012 32.0662C50.4012 34.9579 49.3024 37.329 47.1047 39.1797C45.0227 40.9147 42.4202 41.7822 39.2973 41.7822C36.1743 41.7822 33.6296 40.6834 31.6633 38.4857C29.8126 36.288 28.8873 33.0494 28.8873 28.7697ZM11.3639 41.7822C8.35656 41.7822 5.86974 40.1629 3.90342 36.9242C1.93709 33.6856 0.95393 30.0999 0.95393 26.1673C0.95393 22.2346 1.76359 18.7646 3.38292 15.7573C5.00224 12.6343 7.0264 10.0897 9.45539 8.12333C14.082 4.42201 17.8412 1.99303 20.7328 0.836365L23.3353 4.47985C19.8653 6.33051 16.9159 8.99083 14.4869 12.4608C12.1735 15.9308 10.8434 19.5164 10.4964 23.2178C11.4217 22.6394 12.8675 22.3503 14.8339 22.3503C16.9159 22.3503 18.7087 23.2756 20.2123 25.1263C21.716 26.8613 22.4678 29.1746 22.4678 32.0662C22.4678 34.9579 21.369 37.329 19.1713 39.1797C17.0894 40.9147 14.4869 41.7822 11.3639 41.7822Z" fill="white"/>
</svg>

<svg width="52" height="42" fill="none" xmlns="http://www.w3.org/2000/svg"><path d="M28.887 28.77c0-6.362 2.43-12.26 7.287-17.697C41.032 5.637 45.196 2.224 48.666.836L51.27 4.48c-3.47 1.85-6.42 4.51-8.849 7.98-2.313 3.47-3.643 7.056-3.99 10.758.925-.579 2.37-.868 4.337-.868 2.082 0 3.875.926 5.379 2.776 1.503 1.735 2.255 4.049 2.255 6.94 0 2.892-1.099 5.263-3.296 7.114-2.082 1.735-4.685 2.602-7.808 2.602s-5.667-1.099-7.634-3.296c-1.85-2.198-2.776-5.437-2.776-9.716zM11.364 41.782c-3.007 0-5.494-1.62-7.46-4.858C1.936 33.686.953 30.1.953 26.167c0-3.932.81-7.402 2.429-10.41 1.62-3.123 3.643-5.667 6.072-7.634 4.627-3.701 8.386-6.13 11.278-7.287l2.602 3.644c-3.47 1.85-6.42 4.51-8.848 7.98-2.313 3.47-3.644 7.056-3.99 10.758.925-.579 2.37-.868 4.337-.868 2.082 0 3.875.926 5.378 2.776 1.504 1.735 2.256 4.049 2.256 6.94 0 2.892-1.099 5.263-3.297 7.114-2.082 1.735-4.684 2.602-7.807 2.602z" fill="#fff"/></svg>
